X:1
T:Title
%%score { 1 | 2 }
L:1/8
M:4/4
K:C
V:1 treble nm="Grand Piano"
V:2 bass 
V:1
 z4 z[Q:1/4=110] GAB | .[CEc]2 .[CEB]2 .[CEA]2 .[CEG]2 | [G,CE] [G,B,E]2 [F,B,D] [E,C]4 | %3
 [Fd] [Fd]2 [FB] [FG]4 | [Ge] [Ge]2 [Ec] [EG]GAB | .[CEc]2 .[CEB]2 .[CEA]2 .[CEG]2 | %6
 [G,CE] [G,B,E]2 [F,B,D] [E,C]4 | [Ec]3 [Ec] [Gd]2 [FB]2 |[M:5/8] [Ec]-[Ec]- [Ec]3 |] %9
V:2
 z4 z G,A,B, | .C,2 .C,2 .C,2 .C,2 | C, G,,2 G,, C,4 | [G,,G,] [B,,G,]2 [D,G,] [G,B,]4 | %4
 [C,C] [C,C]2 [C,C] [C,C]G,A,B, | .C,2 .C,2 .C,2 .C,2 | C, G,,2 G,, C,4 | %7
 [C,G,]3 [C,G,] [B,,G,]2 [G,,G,]2 |[M:5/8] [C,G,]-[C,G,]- [C,G,]3 |] %9

